X: 1
T: Staines Morris
T: Then Away to the Maypole
R: March
C: Trad. Playford 1651
O: England, Staines
Z: Paul Hardy's Session Tunebook 2014 (see www.paulhardy.net). Creative Commons cc by-nc-sa licenced.
M: 2/2
L: 1/8
%Q: 1/2=60
K: Em
|: "Em"B2 e2 "A"^c2 "B7"^d2 | "Em"e2 "D7"dc "G"B3 c | "G"dedc "(Em)"B2 AG | "B(m)"FEFG "Em"E4 :|
[| "Em"GABc B2 AG | "Bm"FEFG "Em"E3 F | "G"GABc B2 AG | "D(B7)"FEFG "Em"E4 |]
|: "G"G2 GG D2 D2 | "C"EFGA "G"B3 c | "G"dedc "(Em)"B2 AG | "B7"FEFG "Em"E4 :|

%%sep 1 1 500
